img/benefits/group-9.svg

<svg width="31" height="33" viewBox="0 0 31 33" fill="none" xmlns="http://www.w3.org/2000/svg">
<path d="M7 22.9349C7 21.7145 7.10407 20.6111 7.31222 19.6246C7.52037 18.6381 7.85595 17.683 8.31895 16.7592C8.78196 15.8354 9.39597 14.8653 10.161 13.849C11.0068 12.7408 11.9204 11.5682 12.9019 10.3311C13.8834 9.09398 14.8651 7.76832 15.847 6.3541C16.8289 4.93989 17.7375 3.42565 18.5726 1.81141C18.9285 1.11962 19.2524 0.64477 19.5442 0.386862C19.836 0.128954 20.1915 0 20.6107 0C21.1956 0 21.6572 0.180963 21.9954 0.54289C22.3336 0.904816 22.5028 1.38839 22.5028 1.99362C22.5028 2.68898 22.3605 3.44747 22.0759 4.26911C21.7913 5.09075 21.4633 5.92196 21.0919 6.76274C20.7205 7.60353 20.3925 8.40815 20.108 9.17662C19.8234 9.94509 19.6811 10.6234 19.6811 11.2115C19.6811 11.9275 19.9513 12.5066 20.4917 12.9487C21.0322 13.3907 21.7367 13.6118 22.6055 13.6118H28.5253C29.2202 13.6118 29.8064 13.8502 30.2838 14.327C30.7613 14.8038 31 15.3901 31 16.0858C31 16.9208 30.773 17.5138 30.3189 17.8649C30.0723 18.0658 29.9376 18.2831 29.9149 18.5169C29.8923 18.7507 29.998 18.9632 30.2322 19.1545C30.3928 19.2907 30.5234 19.5123 30.6238 19.8192C30.7243 20.1261 30.7745 20.4554 30.7745 20.8072C30.7745 21.2596 30.6789 21.6755 30.4876 22.0549C30.2964 22.4343 30.047 22.7141 29.7395 22.8943C29.5091 23.0329 29.3565 23.2052 29.2818 23.4113C29.2071 23.6174 29.2654 23.8673 29.4568 24.161C29.6015 24.3491 29.7179 24.5788 29.806 24.8503C29.8941 25.1217 29.9381 25.4272 29.9381 25.7667C29.9381 26.8341 29.3947 27.597 28.3079 28.0553C28.1006 28.1579 27.9603 28.2969 27.8868 28.4723C27.8134 28.6478 27.8546 28.8692 28.0106 29.1368C28.134 29.3229 28.2219 29.5177 28.2744 29.7212C28.3269 29.9247 28.3531 30.14 28.3531 30.3671C28.3531 30.9153 28.1567 31.3884 27.7638 31.7863C27.3709 32.1842 26.8136 32.4682 26.092 32.6383C25.6047 32.7637 24.9703 32.8577 24.1888 32.9204C23.4074 32.9831 22.514 33.0088 21.5089 32.9974L19.2274 32.9632C16.8205 32.9509 14.6979 32.515 12.8597 31.6556C11.0215 30.7962 9.58537 29.6177 8.55122 28.12C7.51707 26.6224 7 24.894 7 22.9349Z" fill="#0037FC"/>
<path d="M0 22.5409C0 20.9124 0.266915 19.4547 0.800744 18.1678C1.33457 16.881 2.03953 15.8646 2.91561 15.1188C3.79169 14.3729 4.73558 14 5.74727 14C6.15367 14 6.56515 14 6.98171 14C7.39827 14 7.81526 14 8.23268 14C7.30881 15.3793 6.65031 16.7332 6.25717 18.0617C5.86403 19.3901 5.66746 20.9059 5.66746 22.6089C5.66746 24.383 6.04962 25.9868 6.81394 27.4204C7.57827 28.854 8.64029 30.0472 10 31C9.39075 31 8.78153 31 8.17237 31C7.5632 31 6.94891 31 6.32949 31C5.21689 31 4.17808 30.6269 3.21305 29.8807C2.24802 29.1345 1.47126 28.121 0.882756 26.8401C0.294252 25.5592 0 24.1261 0 22.5409Z" fill="#0037FC"/>
</svg>

<svg width="31" height="33" fill="none" xmlns="http://www.w3.org/2000/svg"><path d="M7 22.935c0-1.22.104-2.324.312-3.31.208-.987.544-1.942 1.007-2.866.463-.924 1.077-1.894 1.842-2.91a238.05 238.05 0 012.74-3.518 77.675 77.675 0 002.946-3.977 40.924 40.924 0 002.726-4.543c.355-.691.68-1.166.971-1.424A1.554 1.554 0 0120.611 0c.585 0 1.046.181 1.384.543.339.362.508.845.508 1.45 0 .696-.143 1.454-.427 2.276a32.504 32.504 0 01-.984 2.494c-.371.84-.7 1.645-.984 2.414-.285.768-.427 1.446-.427 2.034 0 .716.27 1.296.81 1.738.541.442 1.246.663 2.114.663h5.92c.695 0 1.281.238 1.759.715.477.477.716 1.063.716 1.759 0 .835-.227 1.428-.681 1.779-.247.2-.381.418-.404.652-.023.234.083.446.317.637.16.137.291.358.392.665.1.307.15.636.15.988 0 .453-.095.869-.286 1.248-.192.38-.441.66-.748.84-.23.138-.383.31-.458.516-.075.206-.017.456.175.75.145.188.26.418.349.69.088.27.132.576.132.916 0 1.067-.543 1.83-1.63 2.288-.207.103-.348.242-.421.417-.074.176-.032.397.124.665.123.186.21.38.263.584.053.204.08.419.08.646a1.95 1.95 0 01-.59 1.42c-.393.397-.95.681-1.672.851-.487.126-1.122.22-1.903.282-.782.063-1.675.089-2.68.077l-2.282-.034c-2.407-.012-4.53-.448-6.367-1.307-1.838-.86-3.275-2.038-4.309-3.536C7.517 26.622 7 24.894 7 22.935z" fill="#0037FC"/><path d="M0 22.54c0-1.628.267-3.085.8-4.372.535-1.287 1.24-2.303 2.116-3.05C3.792 14.374 4.736 14 5.747 14h2.485c-.923 1.38-1.582 2.733-1.975 4.062-.393 1.328-.59 2.844-.59 4.547 0 1.774.383 3.378 1.147 4.811A10.157 10.157 0 0010 31H6.329c-1.112 0-2.15-.373-3.116-1.12-.965-.745-1.742-1.759-2.33-3.04C.294 25.56 0 24.126 0 22.54z" fill="#0037FC"/></svg>
